X:1

T:Devonshire Reel, The [2]

M:C

L:1/8

R:Reel

K:C

c2 ec dBAG | A/B/c GE FD D2 | c2 ec dBAG | A/B/c GF EC C2 :|

ecgtc dBgB | cAdc BG G2 | AfcF GEcE | FDGF EC C2 | egcg dgBg |

cAdc BG G2 | AcFc GcEc | Fagf ec c2 ||

                       

DEVONSHIRE WALTZ, THE. AKA and see "The Merry Masons."

                       

DEVY HORNPIPE. Scottish, Hornpipe. G Major. Standard tuning. AA’BB. Kerr (Merry Melodies), vol. 4; No. 293, pg. 31.

